X: 29073
T: Neili's
R: polka
M: 2/4
K: Dmajor
|:ed cA|ed cA|Ac e/e/f|ge dc|
ed c/c/A|ed cA|Ac ef|ge d2:|
|:ef ge|e/e/d cA|ef ge|e/e/c d2|
ef gf|ed cA|Ac e/e/f|ge d2:|

